src/components/sections/images/img_icon.svg

<svg width="32" height="32" viewBox="0 0 32 32" fill="none" xmlns="http://www.w3.org/2000/svg">
<path fill-rule="evenodd" clip-rule="evenodd" d="M7.37209 11.4901C7.7862 6.31493 11.4718 2.66663 16 2.66663C20.5283 2.66663 24.2139 6.31493 24.628 11.4901C25.0478 11.7147 25.3334 12.1573 25.3334 12.6666V16C25.3334 16.7363 24.7364 17.3333 24 17.3333C23.5761 18.8687 22.9262 20.4212 21.9885 21.8246L22.4202 24.8465C22.4917 25.3465 22.8394 25.7632 23.3185 25.9229L29.755 28.0684C30.4536 28.3013 30.8312 29.0563 30.5983 29.7549C30.3654 30.4535 29.6103 30.8311 28.9117 30.5982L22.4753 28.4527C21.0379 27.9736 19.9946 26.7235 19.7804 25.2237L19.6655 24.4198C19.5582 24.5087 19.4488 24.596 19.3372 24.6816L19.3093 24.7031C19.1743 24.807 19.0006 24.9407 18.762 25.0583C18.5637 25.1561 18.3198 25.2389 18.1029 25.2821C17.8404 25.3343 17.5942 25.3338 17.4018 25.3334L17.3541 25.3333H14.646L14.598 25.3334C14.4059 25.3338 14.1603 25.3343 13.8998 25.2829C13.6838 25.2402 13.4432 25.1593 13.2453 25.0626C13.0081 24.9467 12.8325 24.813 12.6962 24.7092L12.6672 24.6871C12.554 24.6012 12.4428 24.5136 12.3339 24.4246L12.2197 25.2237C12.0054 26.7235 10.9622 27.9736 9.52482 28.4527L3.08834 30.5982C2.38975 30.8311 1.63466 30.4535 1.40179 29.7549C1.16893 29.0563 1.54647 28.3013 2.24507 28.0684L8.68155 25.9229C9.16066 25.7632 9.50842 25.3465 9.57985 24.8465L10.0032 21.8828C9.03626 20.4747 8.377 18.9123 7.95552 17.3326C7.23975 17.3091 6.66671 16.7214 6.66671 16V12.6666C6.66671 12.1573 6.9523 11.7147 7.37209 11.4901ZM16 5.33329C12.911 5.33329 10 7.99379 10 12.4677C10 16.1265 11.1559 20.1922 14.2794 22.563C14.3209 22.5945 14.3503 22.6168 14.3758 22.6357C14.3944 22.6495 14.4069 22.6586 14.4154 22.6646C14.4328 22.6653 14.4579 22.6659 14.4975 22.6663C14.5378 22.6666 14.5843 22.6666 14.646 22.6666H17.3541C17.4157 22.6666 17.462 22.6666 17.5022 22.6663C17.5414 22.6659 17.5662 22.6653 17.5833 22.6646C17.5913 22.6589 17.6029 22.6504 17.62 22.6376C17.6447 22.619 17.6732 22.5972 17.7139 22.5659C20.8372 20.1695 22 15.7771 22 12.4677C22 7.99379 19.0891 5.33329 16 5.33329Z" fill="black"/>
</svg>

<svg width="32" height="32" fill="none" xmlns="http://www.w3.org/2000/svg"><path fill-rule="evenodd" clip-rule="evenodd" d="M7.372 11.49c.414-5.175 4.1-8.823 8.628-8.823 4.528 0 8.214 3.648 8.628 8.823.42.225.705.667.705 1.177V16c0 .736-.597 1.333-1.333 1.333-.424 1.536-1.074 3.088-2.012 4.492l.432 3.021c.072.5.42.917.898 1.077l6.437 2.145a1.333 1.333 0 1 1-.843 2.53l-6.437-2.145a4 4 0 0 1-2.695-3.23l-.114-.803c-.108.089-.217.176-.329.262l-.028.021c-.135.104-.308.238-.547.355a2.81 2.81 0 0 1-.66.224 3.467 3.467 0 0 1-.7.051H14.598c-.192 0-.438.001-.698-.05a2.802 2.802 0 0 1-.655-.22 3.172 3.172 0 0 1-.549-.354l-.029-.022a11.775 11.775 0 0 1-.333-.262l-.114.799a4 4 0 0 1-2.695 3.229l-6.437 2.145a1.333 1.333 0 1 1-.843-2.53l6.437-2.145c.479-.16.826-.576.898-1.076l.423-2.964c-.967-1.408-1.626-2.97-2.047-4.55A1.333 1.333 0 0 1 6.666 16v-3.333c0-.51.286-.952.706-1.177zM16 5.333c-3.089 0-6 2.66-6 7.135 0 3.659 1.156 7.724 4.28 10.095a11.224 11.224 0 0 0 .135.102l.083.001H17.502l.081-.001.037-.027.094-.072C20.837 20.17 22 15.777 22 12.468c0-4.474-2.91-7.135-6-7.135z" fill="#000"/></svg>
